X:1
T:Title
L:1/8
M:4/4
K:Ab
V:1 treble nm="Grand Piano"
V:1
 z4 z[Q:1/4=100] CFG | A2 B2 c2 A2 | G4- GG=EF | G2 =E2 A2 G2 | F4- FBB=A | B2 G2 A2 B2 | %6
 c4- cedc | B2 G2 ABGA | F4- Fc_c=c | e2 d2- dB=AB | d2 c2- cAGA | B2 G2 A2 B2 | c4- cc_c=c | %13
 e2 d2- dB=AB | d2 c2- cAGA | B2 G2 c2 c2 | F6 z2 |] %17

